/* XPM */
static const char *logo_xpm[] = {
/* columns rows colors chars-per-pixel */
"32 32 29 1",
"0 c None",
"1 c #0B0E13",
"2 c #1A1F2B",
"3 c #2F394A",
"4 c #2A0A12",
"5 c #FC7557",
"6 c #FA7256",
"7 c #F96F56",
"8 c #F76A55",
"9 c #F76754",
"a c #F56453",
"b c #F46053",
"c c #F25C52",
"d c #FC7958",
"e c #F15851",
"f c #F05550",
"g c #EF5250",
"h c #ED4D4F",
"i c #EC4A4E",
"j c #EB474D",
"k c #EA424D",
"l c #E83F4C",
"m c #E73C4B",
"n c #E6384A",
"o c #E53449",
"p c #E33149",
"q c #E22D48",
"r c #E02A47",
"s c #E02547",
/* pixels */
"00000011111111111111111111000000",
"00011122222222222222222222111000",
"00122233333333333333333333222100",
"01223322222222222222222222332210",
"01232222222222222222222222223210",
"01232222222222222222222222223210",
"12322222222222222222222222222321",
"12322222222222222222222222222321",
"12322222222444444444422222222321",
"12322222244456789abc444222222321",
"1232222244d56789abcefg4422222321",
"123222224d567444444fghi422222321",
"12322222456744222244hij422222321",
"12322222467842222224ijk422222321",
"12322222478942222224jkl422222321",
"12322222489a42222224klm422222321",
"1232222249ab42224444lmn422222321",
"123222224abc44224jklmno422222321",
"123222224bcef44444lmnop422222321",
"1232222244efghijklmnopq422222321",
"123222222444hijklmnopqr422222321",
"1232222222244444444pqrs422222321",
"12322222222222222244rs4422222321",
"12322222222222222224444222222321",
"12322222222222222222222222222321",
"12322222222222222222222222222321",
"01232222222222222222222222223210",
"01232222222222222222222222223210",
"01223322222222222222222222332210",
"00122233333333333333333333222100",
"00011122222222222222222222111000",
"00000011111111111111111111000000"
};
