/* XPM */
static const char *logo_big_xpm[] = {
/* columns rows colors chars-per-pixel */
"64 64 29 1",
"0 c None",
"1 c #0B0E13",
"2 c #1A1F2B",
"3 c #2F394A",
"4 c #2A0A12",
"5 c #FC7557",
"6 c #FA7256",
"7 c #F96F56",
"8 c #F76A55",
"9 c #F76754",
"a c #F56453",
"b c #F46053",
"c c #F25C52",
"d c #FC7958",
"e c #F15851",
"f c #F05550",
"g c #EF5250",
"h c #ED4D4F",
"i c #EC4A4E",
"j c #EB474D",
"k c #EA424D",
"l c #E83F4C",
"m c #E73C4B",
"n c #E6384A",
"o c #E53449",
"p c #E33149",
"q c #E22D48",
"r c #E02A47",
"s c #E02547",
/* pixels */
"0000000000001111111111111111111111111111111111111111000000000000",
"0000000011112222222222222222222222222222222222222222111100000000",
"0000001122222222222222222222222222222222222222222222222211000000",
"0000012222222222222222222222222222222222222222222222222222100000",
"0000122222223333333333333333333333333333333333333333222222210000",
"0001222223332222222222222222222222222222222222222222333222221000",
"0012222332222222222222222222222222222222222222222222222332222100",
"0012223222222222222222222222222222222222222222222222222223222100",
"0122223222222222244444444444444444444444444444422222222223222210",
"0122232222222222244444444444444444444444444444422222222222322210",
"0122232222222222244444444444444444444444444444422222222222322210",
"01222322222444444444555666777888999aaabbbccc44444444422222322210",
"12223222222444444444555666777888999aaabbbccc44444444422222232221",
"12223222222444444444555666777888999aaabbbccc44444444422222232221",
"12223222444444ddd555666777888999aaabbbccceeefffggg44444422232221",
"12223222444444ddd555666777888999aaabbbccceeefffggg44444422232221",
"12223222444444ddd555666777888999aaabbbccceeefffggg44444422232221",
"12223222444ddd555666777444444444444444444fffggghhhiii44422232221",
"12223222444ddd555666777444444444444444444fffggghhhiii44422232221",
"12223222444ddd555666777444444444444444444fffggghhhiii44422232221",
"12223222444555666777444444222222222222444444hhhiiijjj44422232221",
"12223222444555666777444444222222222222444444hhhiiijjj44422232221",
"12223222444555666777444444222222222222444444hhhiiijjj44422232221",
"12223222444666777888444222222222222222222444iiijjjkkk44422232221",
"12223222444666777888444222222222222222222444iiijjjkkk44422232221",
"12223222444666777888444222222222222222222444iiijjjkkk44422232221",
"12223222444777888999444222222222222222222444jjjkkklll44422232221",
"12223222444777888999444222222222222222222444jjjkkklll44422232221",
"12223222444777888999444222222222222222222444jjjkkklll44422232221",
"12223222444888999aaa444222222222222222222444kkklllmmm44422232221",
"12223222444888999aaa444222222222222222222444kkklllmmm44422232221",
"12223222444888999aaa444222222222222222222444kkklllmmm44422232221",
"12223222444999aaabbb444222222222444444444444lllmmmnnn44422232221",
"12223222444999aaabbb444222222222444444444444lllmmmnnn44422232221",
"12223222444999aaabbb444222222222444444444444lllmmmnnn44422232221",
"12223222444aaabbbccc444444222222444jjjkkklllmmmnnnooo44422232221",
"12223222444aaabbbccc444444222222444jjjkkklllmmmnnnooo44422232221",
"12223222444aaabbbccc444444222222444jjjkkklllmmmnnnooo44422232221",
"12223222444bbbccceeefff444444444444444lllmmmnnnoooppp44422232221",
"12223222444bbbccceeefff444444444444444lllmmmnnnoooppp44422232221",
"12223222444bbbccceeefff444444444444444lllmmmnnnoooppp44422232221",
"12223222444444eeefffggghhhiiijjjkkklllmmmnnnooopppqqq44422232221",
"12223222444444eeefffggghhhiiijjjkkklllmmmnnnooopppqqq44422232221",
"12223222444444eeefffggghhhiiijjjkkklllmmmnnnooopppqqq44422232221",
"12223222222444444444hhhiiijjjkkklllmmmnnnooopppqqqrrr44422232221",
"12223222222444444444hhhiiijjjkkklllmmmnnnooopppqqqrrr44422232221",
"12223222222444444444hhhiiijjjkkklllmmmnnnooopppqqqrrr44422232221",
"12223222222222222444444444444444444444444pppqqqrrrsss44422232221",
"12223222222222222444444444444444444444444pppqqqrrrsss44422232221",
"12223222222222222444444444444444444444444pppqqqrrrsss44422232221",
"12223222222222222222222222222222222222444444rrrsss44444422232221",
"12223222222222222222222222222222222222444444rrrsss44444422232221",
"01222322222222222222222222222222222222444444rrrsss44444422322210",
"0122232222222222222222222222222222222222244444444444422222322210",
"0122232222222222222222222222222222222222244444444444422222322210",
"0122223222222222222222222222222222222222244444444444422223222210",
"0012223222222222222222222222222222222222222222222222222223222100",
"0012222332222222222222222222222222222222222222222222222332222100",
"0001222223332222222222222222222222222222222222222222333222221000",
"0000122222223333333333333333333333333333333333333333222222210000",
"0000012222222222222222222222222222222222222222222222222222100000",
"0000001122222222222222222222222222222222222222222222222211000000",
"0000000011112222222222222222222222222222222222222222111100000000",
"0000000000001111111111111111111111111111111111111111000000000000"
};
